svg/stadium-11.svg

<?xml version="1.0" encoding="utf-8"?>
<!-- Generator: Adobe Illustrator 19.2.1, SVG Export Plug-In . SVG Version: 6.00 Build 0)  -->
<!DOCTYPE svg PUBLIC "-//W3C//DTD SVG 1.1//EN" "http://www.w3.org/Graphics/SVG/1.1/DTD/svg11.dtd">
<svg version="1.1"
	 id="svg4619" inkscape:version="0.91 r13725" sodipodi:docname="stadium-11.svg" xmlns:cc="http://creativecommons.org/ns#" xmlns:dc="http://purl.org/dc/elements/1.1/" xmlns:inkscape="http://www.inkscape.org/namespaces/inkscape" xmlns:rdf="http://www.w3.org/1999/02/22-rdf-syntax-ns#" xmlns:sodipodi="http://sodipodi.sourceforge.net/DTD/sodipodi-0.dtd" xmlns:svg="http://www.w3.org/2000/svg"
	 xmlns="http://www.w3.org/2000/svg" xmlns:xlink="http://www.w3.org/1999/xlink" x="0px" y="0px" width="11px" height="11px"
	 viewBox="0 0 11 11" style="enable-background:new 0 0 11 11;" xml:space="preserve">
<path id="path4177" inkscape:connector-curvature="0" sodipodi:nodetypes="cccccsccccccccccccccccccccccc" d="M5,0v3v0.0117
	C2.7922,3.1089,1.0876,3.8182,1,4.6816c0,0,0,2.4594,0,3.6816C0.9995,9.2672,3.0143,10,5.5,10s4.5005-0.7328,4.5-1.6367V4.6816
	C9.9122,3.8177,8.2093,3.1082,6,3.0117V2.5723L8.5,1.5L5,0z M1.8184,5.752C2.1366,5.9302,2.5373,6.0838,3,6.2051v2.459
	C2.2493,8.4283,1.8213,8.0972,1.8184,7.75V5.752z M9.1816,5.7559V7.75C9.1803,8.0979,8.7521,8.4298,8,8.666V6.2031
	C8.4614,6.0836,8.862,5.932,9.1816,5.7559z M4,6.3984C4.4815,6.4652,4.9888,6.4995,5.5,6.5C6.0112,6.4995,6.5185,6.4652,7,6.3984
	v2.4922C6.5282,8.9624,6.0171,8.9997,5.5,9C4.9829,8.9997,4.4718,8.9624,4,8.8906V6.3984z"/>
</svg>

<svg xmlns="http://www.w3.org/2000/svg" width="11" height="11">
    <path d="M5 0v3.012c-2.208.097-3.912.806-4 1.67v3.681C1 9.267 3.014 10 5.5 10S10 9.267 10 8.363V4.682c-.088-.864-1.79-1.574-4-1.67v-.44L8.5 1.5 5 0zM1.818 5.752c.319.178.72.332 1.182.453v2.46c-.75-.237-1.179-.568-1.182-.915V5.752zm7.364.004V7.75c-.002.348-.43.68-1.182.916V6.203c.461-.12.862-.271 1.182-.447zM4 6.398a11.066 11.066 0 0 0 3 0v2.493C6.528 8.962 6.017 9 5.5 9S4.472 8.962 4 8.89V6.399z"/>
</svg>
